X: 158
T:Nad Ilan
O:Israel
C:Jonathon Karmon 1958
M:4/4
L:1/4
K:Dphr
Q:1/4=96
%%MIDI program 22 Harmonica
%%MIDI chordprog 24 Acoustic Guitar octave=1
%%MIDI chordvol 64
%%MIDI gchord z2ghi2h2
"Dm"F2-  FE      |D2- D2     |F3/2G/2 FE      |"Gm"DB, GG|\
"Dm"F3/2G/2 FE   |D2- D2     :| "Gm"E3/2F/2 GG|GG GG     |
"Dm"FE F3/2G/2 FE|"Dm"D2- D2 :|



